img/youtube.svg

<svg enable-background="new 0 0 1024 721" viewBox="0 0 1024 721" xmlns="http://www.w3.org/2000/svg" xmlns:xlink="http://www.w3.org/1999/xlink"><linearGradient id="a" gradientTransform="matrix(1 0 0 -1 0 721)" gradientUnits="userSpaceOnUse" x1="512.5" x2="512.5" y1="719.7" y2="1.2"><stop offset="0" stop-color="#e52d27"/><stop offset="1" stop-color="#bf171d"/></linearGradient><path d="m407 493 276-143-276-144z" fill="#fff"/><path d="m407 206 242 161.6 34-17.6z" fill="#420000" opacity=".12"/><path d="m1013 156.3s-10-70.4-40.6-101.4c-38.8-40.7-82.4-40.9-102.3-43.3-143-10.3-357.4-10.3-357.4-10.3h-.4s-214.4 0-357.4 10.3c-19.9 2.4-63.5 2.6-102.3 43.3-30.6 31-40.6 101.4-40.6 101.4s-10.2 82.6-10.2 165.3v77.5c0 82.7 10.2 165.3 10.2 165.3s10 70.4 40.6 101.4c38.9 40.7 89.9 39.4 112.6 43.7 81.7 7.8 347.3 10.3 347.3 10.3s214.6-.3 357.6-10.7c20-2.4 63.5-2.6 102.3-43.3 30.6-31 40.6-101.4 40.6-101.4s10.2-82.7 10.2-165.3v-77.5c0-82.7-10.2-165.3-10.2-165.3zm-606 336.7v-287l276 144z" fill="url(#a)"/></svg>

<?xml version="1.0" encoding="utf-8"?>
<!-- Generator: Adobe Illustrator 21.0.0, SVG Export Plug-In . SVG Version: 6.00 Build 0)  -->
<svg version="1.1" id="YouTube_Icon" xmlns="http://www.w3.org/2000/svg" xmlns:xlink="http://www.w3.org/1999/xlink" x="0px"
	 y="0px" viewBox="0 0 1024 721" enable-background="new 0 0 1024 721" xml:space="preserve">
<path id="Triangle" fill="#FFFFFF" d="M407,493l276-143L407,206V493z"/>
<path id="The_Sharpness" opacity="0.12" fill="#420000" d="M407,206l242,161.6l34-17.6L407,206z"/>
<g id="Lozenge">
	<g>
		
			<linearGradient id="SVGID_1_" gradientUnits="userSpaceOnUse" x1="512.5" y1="719.7" x2="512.5" y2="1.2" gradientTransform="matrix(1 0 0 -1 0 721)">
			<stop  offset="0" style="stop-color:#E52D27"/>
			<stop  offset="1" style="stop-color:#BF171D"/>
		</linearGradient>
		<path fill="url(#SVGID_1_)" d="M1013,156.3c0,0-10-70.4-40.6-101.4C933.6,14.2,890,14,870.1,11.6C727.1,1.3,512.7,1.3,512.7,1.3
			h-0.4c0,0-214.4,0-357.4,10.3C135,14,91.4,14.2,52.6,54.9C22,85.9,12,156.3,12,156.3S1.8,238.9,1.8,321.6v77.5
			C1.8,481.8,12,564.4,12,564.4s10,70.4,40.6,101.4c38.9,40.7,89.9,39.4,112.6,43.7c81.7,7.8,347.3,10.3,347.3,10.3
			s214.6-0.3,357.6-10.7c20-2.4,63.5-2.6,102.3-43.3c30.6-31,40.6-101.4,40.6-101.4s10.2-82.7,10.2-165.3v-77.5
			C1023.2,238.9,1013,156.3,1013,156.3z M407,493V206l276,144L407,493z"/>
	</g>
</g>
</svg>
